X:1039
T:Poteau Blanc, Le
R:reel
O:Quebec
Z:id:hn-reel-1039
M:C|
L:1/8
K:A
AcBA c3B | Aaga f2ec | AcBA c2BA | GBEB GBE2 |
AcBA c3B | Aaga f2ec | eagf edcB |1 Aaec A3E :|2 A2a2 A3E ||
|: ABcd e2cA | Bcde f2ed | cefg a2gf |
eagf edcB |1 [M:3/2]Aaga fdBG A3E :|2 [M:C|] A2a2 A3E ||

